X: 32434
T: Piper's Whim, The
R: slip jig
M: 9/8
K: Gmajor
|:d|B2 G GAG dBG|B/c/dB gdB deg|
B2 G GAG dBG|A/B/cA =fcA c2:|
|:d|B2 d gdB gdc|B2 d gdB deg|
B2 d gdB gdB|A/B/cA =fcA c2:|

